X: 5
T:Malltraeth
M:3/4
L:1/8
Q:140
C:Trad
S:Blodau'r Grug Collection Vol. 1
R:Waltz
A:Wales
Z:brian_martin12345@yahoo.com
K:G
dc|B2GB AG|F2DE DC|B,2D2GF|G4dc|B2g2f2|e2A2d2|^c3d ec|d4:||!
d2|ed ef ge|d2B2cd|e2EF GA|G2FE DC|B,2D2GF|E>Gc2B2|A>BD2GF|G4:||
